!!!COM: Bach, Johann Sebastian
!!!OPR: Joh. Seb. Bachs vierstimmige Choralges‰nge
!!!XEN: Four-part Chorales
!!!OTL: 58. Es woll' uns Gott gen‰dig sein
!!!SCT: BWV 311
!!!SCA: Thematisch-systematisches Verzeichnis der musikalischen Werke Johann Sebastian Bach: Bach-Werke-Verzeichnis (Schmieder)
!!!YOR: Bach Gesellschaft Edition xxxix
!!!ENC: Steven Rasmussen
!!!CDT: 1685/3//-1750/7/28/
!!!OCY: Deutschland
!!!YEC: Copyright (c) 1994, 2000 Center for Computer Assisted Research in the Humanities
!!!YEM: Rights to all derivative editions reserved
!!!YEN: United States of America
**kern	**silbe	**kern	**silbe	**kern	**silbe	**kern	**silbe
*I:[SOPRANO]	*I:[SOPRANO]	*I:[ALTO]	*I:[ALTO]	*I:[TENORE]	*I:[TENORE]	*I:[BASSO]	*I:[BASSO]
*>[A,A,B]	*	*>[A,A,B]	*	*>[A,A,B]	*	*>[A,A,B]	*
*>A	*	*>A	*	*>A	*	*>A	*
*clefG2	*	*clefG2	*	*clefGv2	*	*clefF4	*
*k[f#c#]	*	*k[f#c#]	*	*k[f#c#]	*	*k[f#c#]	*
*b:	*	*b:	*	*b:	*	*b:	*
*M4/4	*	*M4/4	*	*M4/4	*	*M4/4	*
4cc#	Essein	4f#	.	4A#	.	4F#	.
=1	=1	=1	=1	=1	=1	=1	=1
4dd	woll'Ant-	4f#	.	4B	.	4B	.
4cc#	uns-litz	4f#	.	8c#L	.	4A	.
.	.	.	.	8dJ	.	.	.
4b	Gottuns	4g	.	4e	.	4G	.
8cc#L	ge-mit	4a	.	4A	.	4F#	.
8ddJ	.	.	.	.	.	.	.
=2	=2	=2	=2	=2	=2	=2	=2
4ee	-n√§-hel-	4g	.	8BL	.	4E	.
.	.	.	.	8c#J	.	.	.
4ff#	.	8f#L	.	4d	.	4D	.
.	.	8g#J	.	.	.	.	.
4ee	.	4a#	.	4e	.	4C#	.
4dd	-dig-lem	4b	.	4f#	.	4BB	.
=3	=3	=3	=3	=3	=3	=3	=3
2cc#;	seinSchein	2a#;	.	2f#;	.	2F#;	.
4r	.	4r	.	4r	.	4r	.
4ee	under-	4cc#	.	4f#	.	4A#	.
=4	=4	=4	=4	=4	=4	=4	=4
4dd	sei--leucht'	8bL	.	4f#	.	4B	.
.	.	8aJ	.	.	.	.	.
4cc#	-nenzum	4g	.	4e	.	4E	.
4dd	Se-ew'-	4a	.	4d	.	4F#	.
4b	-gen-gen	8gL	.	4d	.	4G	.
.	.	8f#J	.	.	.	.	.
=5	=5	=5	=5	=5	=5	=5	=5
4a	ge-Le-	4e	.	4e	.	4C#	.
8f#L	.	8dL	.	8AL	.	4D	.
8gJ	.	8eJ	.	8BJ	.	.	.
4a	.	4f#	.	4cn	.	4D#	.
4g	.	8eL	.	4B	.	4E	.
.	.	8dJ	.	.	.	.	.
=6	=6	=6	=6	=6	=6	=6	=6
2.f#;	-ben;-ben,	2.c#;	.	2.A#;	.	2.F#;	.
=:|!	=:|!	=:|!	=:|!	=:|!	=:|!	=:|!	=:|!
*>B	*	*>B	*	*>B	*	*>B	*
4a	dass	4c#	.	4An	.	4F#	.
=7	=7	=7	=7	=7	=7	=7	=7
4g	wir	4d	.	4B	.	8BBL	.
.	.	.	.	.	.	8C#J	.
4f#	er-	4d	.	4A	.	4D	.
4e	-ken-	4c#	.	8AL	.	4AA	.
.	.	.	.	8GJ	.	.	.
4f#	-nen	4c#	.	4F#	.	4AA#	.
=8	=8	=8	=8	=8	=8	=8	=8
4d	sei-	8dL	.	4F#	.	4BB	.
.	.	8c#J	.	.	.	.	.
4e	-ne	4B	.	4B	.	4GG	.
4f#;	Werk'	4c#;	.	4A#;	.	4FF#;	.
4cc#	und,	4f#	.	4A#	.	4F#	.
=9	=9	=9	=9	=9	=9	=9	=9
4dd	was	8f#L	.	4B	.	4B	.
.	.	8g#J	.	.	.	.	.
4cc#	ihn	4a#	.	4e	.	4c#	.
4b	liebt,	4b	.	4f#	.	4d	.
8cc#L	auf	8a#L	.	8eL	.	8c#L	.
8ddJ	.	8bJ	.	8dJ	.	8BJ	.
=10	=10	=10	=10	=10	=10	=10	=10
4ee	Er-	8cc#L	.	4c#	.	4A#	.
.	.	[8f#J	.	.	.	.	.
4dd	.	4f#]	.	4B	.	4B	.
4cc#;	-den,	4f#;	.	4A#;	.	4F#;	.
4ff#	und	4a	.	4B	.	4D#	.
=11	=11	=11	=11	=11	=11	=11	=11
8eeL	Je-	4g#	.	4B	.	4E	.
8ddJ	.	.	.	.	.	.	.
8cc#L	-sus	4a	.	4A	.	4F#	.
8ddJ	.	.	.	.	.	.	.
4ee	Chri-	4e	.	8BL	.	8G#L	.
.	.	.	.	8AJ	.	8F#J	.
4b	-stus	4e	.	4G#	.	8EL	.
.	.	.	.	.	.	8DJ	.
=12	=12	=12	=12	=12	=12	=12	=12
4a	Heil	8eL	.	4A	.	8C#L	.
.	.	8dJ	.	.	.	8BBJ	.
4g	und	8eL	.	4A	.	8C#L	.
.	.	8c#J	.	.	.	8AAJ	.
4f#;	St√§rk'	4d;	.	4A;	.	4D;	.
4e	be-	4c#	.	4A	.	8AL	.
.	.	.	.	.	.	8G#J	.
=13	=13	=13	=13	=13	=13	=13	=13
4a	-kannt	8c#L	.	4A	.	4F#	.
.	.	8d#J	.	.	.	.	.
4b	den	4e	.	4G#	.	8EL	.
.	.	.	.	.	.	8DJ	.
8cc#L	Hei-	8eL	.	8A#L	.	8C#L	.
8ddJ	.	8f#J	.	8BJ	.	8BBJ	.
4ee	-den	8gL	.	4c#	.	4AA#	.
.	.	8f#J	.	.	.	.	.
=14	=14	=14	=14	=14	=14	=14	=14
4dd	wer-	8f#L	.	8c#L	.	4BB	.
.	.	8g#J	.	8BJ	.	.	.
4cc#	.	4a	.	4e	.	8C#L	.
.	.	.	.	.	.	8D#J	.
4b;	-den	4g#;	.	4e;	.	4E;	.
4dd	und	4f#	.	8AL	.	8F#L	.
.	.	.	.	8BJ	.	8G#J	.
=15	=15	=15	=15	=15	=15	=15	=15
4cc#	sie	8eL	.	4c#	.	4A	.
.	.	8f#J	.	.	.	.	.
4b	zu	4g	.	4d	.	8BL	.
.	.	.	.	.	.	8c#J	.
8aL	Gott	8f#L	.	4d	.	4d	.
8gJ	.	8eJ	.	.	.	.	.
8f#L	be-	4d	be-	4A	be-	4D	be-
8gJ	.	.	.	.	.	.	.
=16	=16	=16	=16	=16	=16	=16	=16
4a	-keh-	2.e	-keh-	4A	-keh-	4Cn	-keh-
4g	.	.	.	4B	.	4BB	.
[2f#	-ren.	.	.	4c#	.	4AA#	.
.	.	[4d	.	[4B	.	4BB	.
=17	=17	=17	=17	=17	=17	=17	=17
2.f#;]	.	4d]	.	4B]	.	2.FF#;	-ren.
.	.	8c#L	.	8A#L	.	.	.
.	.	8BJ	.	8G#J	.	.	.
.	.	4c#;	-ren.	4A#;	-ren.	.	.
==|!	==|!	==|!	==|!	==|!	==|!	==|!	==|!
*-	*-	*-	*-	*-	*-	*-	*-
!!!RWG: Key is interpreted using the Humdrum key tool.
!!!END: 1994/05/25
!!!EMD: Converted from MuseData to Humdrum Dec 19, 2000, by Andreas Kornstaedt using muse2kern.
!!!EED: Craig Stuart Sapp
!!!EEV: 2024/03/31
!!!ONB: Some non-unicode characters
